X:1
T:F Major Louis Bourgeois, 1560 Revised and harmonized by John Dowland
T:William Kethe, 1561 88. 88. (L. M.)
T:Psalm 100 No copyright. Transcribed from The Whole Booke of Psalmes, 1621.
%%score [ 1 2 3 4 ]
L:1/8
M:12/4
K:F
V:1 treble nm="Cantus" snm="Tr."
V:2 treble nm="Medius" snm="C."
V:3 treble-8 nm="Tenor" snm="T."
V:4 bass nm="Bassus" snm="B."
V:1
 A4 B2 G2 B2 (A3 G) F4 E2 F4 || c4 C2 F2 E2 (D3 E) F4 F2 E4 || D4 E2 F2 E2 (A3 G) F2 (c3 B) A4 || %3
 E4 F3 E D2 (G3 F) F4 E2 F12 |] %4
V:2
"^1. All people that on earth do dwell, Sing to the Lord with cheerful voice: Him serve with fear, His praise forth tell, Come ye before Him and rejoice.""^2. The Lord ye know is God indeed, Without our aid He did us make: We are his flock, He doth us feed, And for His           sheep He doth   us     take." c4 d2 c2 (de f4) c2 c2 c2 c4 || %1
 f4 f2 c2 c2 A (B2 c) (d2 c4) c4 || A4 c2 c2 c2 c2 (B3 A) G4 d4 || G3 c2 (d2 A) B2 d2 c6 c2 c12 |] %4
V:3
"^3. O, enter then His gates with praise, Approach with joy His courts unto: Praise, laud, and bless His name always,  For it is seemly so      to     do.""^4. For why? The Lord our God is good, His mercy is for ever sure:   His truth at all times firmly stood, And shall from          age to age         endure." F4 F2 E2 D2 C2 F4 G4 A4 || %1
 A4 A2 A2 G2 F2 B4 A4 G4 || F4 G2 A2 G2 F2 D4 E4 F4 || c4 A2 F2 G2 B2 A4 G4 F12 |] %4
V:4
 F,,4 B,,2 C,2 G,,2 A,,2 F,,4 C,4 F,,4 || F,,4 F,2 F,2 C,2 D,2 B,,4 F,4 C,4 || %2
 D,4 C,2 A,,2 C,2 F,,2 B,,4 C,4 D,4 || C,4 F,>E, D,>C, B,,>A,, G,,2 (A,,3 B,,) C,4 F,,12 |] %4

